X:1
T:[ID 1-66a]
T:[ID 1-66a]
T:Bezeichnung standardisiert: Vexier-Menuet Fetz Zier Men\"uet
T:Urheber unbekannt Datum in der hier transkribierten schriftlichen Quelle: vermutlich vor 1767
C:Urheber unbekannt
C:Datum in der hier transkribierten schriftlichen Quelle: vermutlich vor 1767
L:1/8
M:3/4
K:C
V:1 treble 
V:1
 defgag | f2 ef d2 | _bagfed | ^c2 Bc A2 | defgag | f2 ef d2 | _bagf e/d/^c | d6 :: ag/a/ _b2 a2 | %9
 gf/e/ fcAF | ag/a/ _b2 a2 | gf/e/ f2 F2 :| %12

